X:174
T:Pant Corlan yr Wyr
C:Trad - G
S:Welsh
M:4/4
L:1/8
K:G
D2|: G2 GA B2 G2 | c2 AB c2 A2 | B2 G2 G2 B2 | d2 A2 F2 D2 |
  | G2 GA B2 G2|c2 AB c2 A2 | B2 G2 FG A2 |1 G4-G2 D2:|2 G4-G2 dc|
  |: B2 d2 d2 cB | A2c2 c2 BA | G2 B2 B2 AG | F2 A2 F2 D2 |
  | G2 GA B2G2 | c2 AB c2 A2 | B2 G2 G2 B2 | d2 A2 F2 D2 |
  |G2 GA B2 G2 | c2 AB c2 A2| B2 G2 FG A2 |1 G4-G2 dc :|2 G4-G2 D2|
